symbols/web/border_inner/materialsymbolsoutlined/border_inner_wght100grad200_40px.svg

<svg xmlns="http://www.w3.org/2000/svg" height="40" width="40"><path d="M5.292 34.708V32.5H7.5v2.208Zm13.625 0V21.083H5.292v-2.208h13.625V5.292h2.208v13.583h13.583v2.208H21.125v13.625Zm-6.792 0V32.5h2.208v2.208Zm13.583 0V32.5h2.209v2.208Zm6.792 0V32.5h2.208v2.208ZM5.292 27.875v-2.208H7.5v2.208Zm27.208 0v-2.208h2.208v2.208ZM5.292 14.292v-2.209H7.5v2.209Zm27.208 0v-2.209h2.208v2.209ZM5.292 7.5V5.292H7.5V7.5Zm6.833 0V5.292h2.208V7.5Zm13.583 0V5.292h2.209V7.5Zm6.792 0V5.292h2.208V7.5Z"/></svg>

<svg xmlns="http://www.w3.org/2000/svg" height="40" width="40"><path d="M5.292 34.708V32.5H7.5V34.708ZM18.917 34.708V21.083H5.292V18.875H18.917V5.292H21.125V18.875H34.708V21.083H21.125V34.708ZM5.292 27.875V25.667H7.5V27.875ZM5.292 14.292V12.083H7.5V14.292ZM5.292 7.5V5.292H7.5V7.5ZM12.125 34.708V32.5H14.333V34.708ZM12.125 7.5V5.292H14.333V7.5ZM25.708 34.708V32.5H27.917V34.708ZM25.708 7.5V5.292H27.917V7.5ZM32.5 34.708V32.5H34.708V34.708ZM32.5 27.875V25.667H34.708V27.875ZM32.5 14.292V12.083H34.708V14.292ZM32.5 7.5V5.292H34.708V7.5Z"/></svg>
